X:1
T:Title
%%score ( 1 2 ) { 3 | 4 }
L:1/8
Q:1/4=93
M:3/4
K:F
V:1 treble nm="Grand Piano, Soprano"
V:2 treble 
V:3 bass nm="Choir Pad, Bass"
V:4 bass 
V:1
 [DF][^CE] [DF] [DB]3 | [DF][^CE] [DF] [_EG]3- | [EG] [_EB]2 [EA]3 | _E[EA] [EG] [DF]3 | %4
w: By~James~McGranahan,~1879 * * *||||
 [DF][^CE] [DF] [DB]3 | [DF][^CE] [DF] [_EG]3- | [EG] [_EG]2 [=Ec]3 | [EB][EA] [EG] F3 | %8
w: ||||
 F[FA] [FB] [Fc]3 | [FA][FB] [Fc] [FB]3- | [FB] F2 [G_e]3 | [G_e][Fd] [FB] [_Ec]3 | %12
w: ||||
 [DF][^CE] [DF] [DB]3 | [DF][^CE] [DF] [_EG]3- | [EG] [G_e]2 .[Fe]3 | [DB][_Ec]- [Ec]/[CA]/ [DB]3 | %16
w: ||||
 [Fd][Fd] [^Fd] [Gd]3 | [_Ec][DB] [DA] [DG]3- | [DG] [_EG]2 [=Ec]3 | .c2 z2 z2 | %20
w: ||||
 [DF][^CE] [DF] [Fd]3 | [DF][^CE] [DF] [_EG]3- | [EG] [G_e]2 .[Fd]3 | %23
w: |||
 [DB][_Ec]- [Ec]/[CA]/ [DB]3- | [DB]4 z2 |] %25
w: ||
V:2
 x6 | x6 | x6 | x6 | x6 | x6 | x6 | x6 | x6 | x6 | x6 | x6 | x6 | x6 | x6 | x6 | x6 | x6 | x6 | %19
 E/G/[Bd] [Be] [Af]3 | x6 | x6 | x6 | x6 | x6 |] %25
V:3
 B,B, B, F,3 | B,B, B, B,3- | B, G,2 F,3 | A,C F, B,3 | B,B, B, F,3 | B,B, B, B,3- | B, B,2 B,3 | %7
 G,C B, A,3 | A,[K:treble]C D _E3 | CD _E D3- | D D2[K:bass] B,3 | B,B, B, A,3 | B,B, B, F,3 | %13
 B,B, B, B,3- | B, B,2 .B,3 | B,A,- A,/F,/ F,3 | B,B, D B,3 | G,^F, A, B,3- | B, B,2 B,3 | %19
 B,G, C C3 | B,B, B, B,3 | B,B, B, B,3- | B, B,2 .B,3 | F,F,- F,/F,/ F,3- | F,4 z2 |] %25
V:4
 B,,B,, B,, B,,3 | B,,B,, B,, _E,3- | E, ._E,3 z2 | F,F, z B,,3 | B,,B,, B,, B,,3 | %5
 B,,B,, B,, _E,3- | E, _E,2 C,3 | C,C, C, F,3 | F,F, F, F,3 | F,F, F, B,3- | B, B,2 _E,3 | %11
 _E,B,, D, F,3 | B,,B,, B,, B,,3 | B,,B,, B,, _E,3- | E, _E,2 .F,3 | F, F,2 B,,3 | %16
 B,,B,, A,, G,,3 | C,D, D, G,3- | G, _E,2 C,3 | C,C, C, F,3 | B,,B,, B,, B,,3 | B,,B,, B,, _E,3- | %22
 E, _E,2 .F,3 | z2 z B,,3- | B,,4 z2 |] %25

